svg/fluentui-system-icons/ic_fluent_center_vertical_20_regular.svg

<svg width="20" height="20" viewBox="0 0 20 20" fill="none" xmlns="http://www.w3.org/2000/svg">
<path d="M2 3.5C2 3.22386 2.22386 3 2.5 3H17.5C17.7761 3 18 3.22386 18 3.5C18 3.77614 17.7761 4 17.5 4H2.5C2.22386 4 2 3.77614 2 3.5ZM2.5 16C2.22386 16 2 16.2239 2 16.5C2 16.7761 2.22386 17 2.5 17H17.5C17.7761 17 18 16.7761 18 16.5C18 16.2239 17.7761 16 17.5 16H2.5ZM6 7C4.89543 7 4 7.89543 4 9V11C4 12.1046 4.89543 13 6 13H14C15.1046 13 16 12.1046 16 11V9C16 7.89543 15.1046 7 14 7H6ZM5 9C5 8.44772 5.44772 8 6 8H14C14.5523 8 15 8.44772 15 9V11C15 11.5523 14.5523 12 14 12H6C5.44772 12 5 11.5523 5 11V9Z" fill="#212121"/>
</svg>

<svg xmlns="http://www.w3.org/2000/svg" width="20" height="20"><path d="M2 3.5a.5.5 0 0 1 .5-.5h15a.5.5 0 0 1 0 1h-15a.5.5 0 0 1-.5-.5ZM2.5 16a.5.5 0 0 0 0 1h15a.5.5 0 0 0 0-1h-15ZM6 7a2 2 0 0 0-2 2v2a2 2 0 0 0 2 2h8a2 2 0 0 0 2-2V9a2 2 0 0 0-2-2H6ZM5 9a1 1 0 0 1 1-1h8a1 1 0 0 1 1 1v2a1 1 0 0 1-1 1H6a1 1 0 0 1-1-1V9Z"/></svg>
